; generated by PrusaSlicer 2.5.0+win64 on 2022-12-28 at 13:41:35 UTC


;
;

;
;
; 

; external perimeters extrusion width = 0.45mm
; perimeters extrusion width = 0.45mm
; infill extrusion width = 0.45mm
; solid infill extrusion width = 0.45mm
; top infill extrusion width = 0.40mm
; first layer extrusion width = 0.42mm

M107
;TYPE:Custom
G90 ; use absolute coordinates
M83 ; extruder relative mode
M104 S120 ; set temporary nozzle temp to prevent oozing during homing and auto bed leveling
M140 S60 ; set final bed temp
G4 S10 ; allow partial nozzle warmup
G28 ; home all axis
G1 Z50 F240
G1 X2 Y10 F3000
M104 S210 ; set final nozzle temp
M190 S60 ; wait for bed temp to stabilize
M109 S210 ; wait for nozzle temp to stabilize
G1 Z0.28 F240
G92 E0
G1 Y140 E10 F1500 ; prime the nozzle
G1 X2.3 F5000
G92 E0
G1 Y10 E10 F1200 ; prime the nozzle
G92 E0
G21 ; set units to millimeters
G90 ; use absolute coordinates
M83 ; use relative distances for extrusion
; Filament gcode
M107
;LAYER_CHANGE
;Z:0.2
;HEIGHT:0.2
;BEFORE_LAYER_CHANGE
G92 E0
;0.2


G1 E-5 F3600
G1 Z.2 F9000
;AFTER_LAYER_CHANGE
;0.2
G1 X91.475 Y99.697
G1 E5 F2400
;TYPE:Skirt/Brim
;WIDTH:0.42
G1 F1200
G1 X92.521 Y98.821 E.04278
G1 X93.461 Y98.627 E.03008
G1 X141.5 Y98.627 E1.50624
G1 X142.807 Y99.019 E.04278
G1 X143.683 Y100.064 E.04278
G1 X143.877 Y101.004 E.03008
G1 X143.852 Y127.677 E.83631
G1 X143.688 Y128.87 E.03775
G1 X143.42 Y129.887 E.03298
G1 X142.627 Y131.675 E.06135
G1 X141.96 Y132.678 E.03775
G1 X141.277 Y133.478 E.03297
G1 X140.391 Y134.293 E.03775
G1 X139.408 Y134.988 E.03775
G1 X138.343 Y135.551 E.03775
G1 X137.216 Y135.973 E.03775
G1 X136.043 Y136.247 E.03775
G1 X134.845 Y136.368 E.03775
G1 X106.602 Y136.335 E.88554
G1 X104.74 Y135.972 E.0595
G1 X92.759 Y132.27 E.39319
G1 X91.626 Y131.51 E.04278
G1 X91.084 Y129.999 E.05034
G1 X91.084 Y101.004 E.9091
G1 X91.458 Y99.755 E.0409
G1 E-3.5 F3600
;WIPE_START
G1 F7200
G1 X92.521 Y98.821 E-.67209
G1 X93.461 Y98.627 E-.45576
G1 X94.086 Y98.627 E-.29715
;WIPE_END
G1 E-.075 F3600
G1 X102.019 Y102.983 F9000
G1 E5 F2400
;TYPE:Perimeter
;WIDTH:0.588445
G1 F1200
G1 X101.929 Y102.847 E.00737
G1 X101.73 Y102.804 E.00924
;WIDTH:0.548065
G1 X101.531 Y102.76 E.00856
;WIDTH:0.507684
G1 X101.332 Y102.716 E.00787
;WIDTH:0.467303
G1 X94.749 Y102.716 E.23233
G1 X94.749 Y102.292 E.01498
G1 X101.332 Y102.292 E.23233
;WIDTH:0.507684
G1 X101.651 Y102.312 E.01235
;WIDTH:0.548065
G1 X101.97 Y102.332 E.01342
;WIDTH:0.588445
G1 X102.289 Y102.352 E.01449
G1 X102.345 Y102.534 E.00864
G1 X102.457 Y102.775 E.01206
;WIDTH:0.547337
G1 X102.569 Y103.016 E.01115
;WIDTH:0.506229
G1 X102.681 Y103.257 E.01024
;WIDTH:0.465121
G1 X103.115 Y104.01 E.03049
;WIDTH:0.472919
G1 X103.427 Y104.406 E.01805
;WIDTH:0.473048
G1 X103.89 Y104.889 E.02393
G1 X104.406 Y105.316 E.02394
;WIDTH:0.468367
G1 X105.156 Y105.758 E.03077
;WIDTH:0.472757
G1 X105.622 Y105.951 E.01805
;WIDTH:0.473279
G1 X106.263 Y106.143 E.02393
G1 X106.922 Y106.259 E.02395
;WIDTH:0.469119
G1 X107.767 Y106.278 E.02994
;WIDTH:0.472411
G1 X108.293 Y106.216 E.01894
;WIDTH:0.473451
G1 X108.945 Y106.067 E.02394
G1 X109.576 Y105.844 E.02396
;WIDTH:0.469811
G1 X110.3 Y105.46 E.02909
;WIDTH:0.472008
G1 X110.749 Y105.133 E.01982
;WIDTH:0.473568
G1 X111.243 Y104.682 E.02395
G1 X111.682 Y104.177 E.02396
;WIDTH:0.470448
G1 X112.113 Y103.509 E.02824
;WIDTH:0.464216
G1 X112.415 Y102.841 E.02568
;WIDTH:0.46992
G1 X112.575 Y102.293 E.02027
G1 X113.014 Y102.293 E.01558
G1 X112.942 Y102.574 E.01029
;WIDTH:0.471544
G1 X112.744 Y103.163 E.02215
G1 X112.385 Y103.886 E.02876
;WIDTH:0.465379
G1 X111.958 Y104.515 E.0267
;WIDTH:0.473568
G1 X111.543 Y104.99 E.0226
G1 X110.999 Y105.481 E.02624
;WIDTH:0.472008
G1 X110.354 Y105.923 E.0279
;WIDTH:0.466044
G1 X109.546 Y106.312 E.03156
;WIDTH:0.473451
G1 X109.056 Y106.483 E.01858
G1 X108.34 Y106.642 E.02623
;WIDTH:0.472411
G1 X107.587 Y106.711 E.02703
;WIDTH:0.46677
G1 X106.686 Y106.655 E.0318
;WIDTH:0.473279
G1 X106.156 Y106.559 E.01928
G1 X105.454 Y106.346 E.02622
;WIDTH:0.472757
G1 X104.785 Y106.047 E.02619
;WIDTH:0.467555
G1 X103.984 Y105.523 E.03382
;WIDTH:0.473048
G1 X103.593 Y105.2 E.01815
G1 X103.087 Y104.669 E.02621
;WIDTH:0.472919
G1 X102.653 Y104.082 E.02612
;WIDTH:0.472767
G1 X102.218 Y103.282 E.03255
;WIDTH:0.511327
G1 X102.122 Y103.137 E.00677
;WIDTH:0.549886
G1 X102.052 Y103.033 E.00528
G1 X101.697 Y103.267 F9000
;WIDTH:0.419999
G1 F1200
G1 X101.661 Y103.222 E.00179
G1 X101.332 Y103.117 E.01083
G1 X94.348 Y103.117 E.21899
G1 X94.348 Y101.891 E.03844
G1 X102.672 Y101.891 E.261
G1 X102.78 Y102.381 E.01572
G1 X103.03 Y103.062 E.02273
G1 X103.451 Y103.794 E.02648
G1 X103.901 Y104.35 E.02245
G1 X104.617 Y104.974 E.02977
G1 X105.304 Y105.388 E.02516
G1 X105.984 Y105.661 E.02298
G1 X106.939 Y105.858 E.03057
G1 X107.716 Y105.883 E.02437
G1 X108.242 Y105.816 E.01663
G1 X108.827 Y105.681 E.01882
G1 X109.395 Y105.485 E.01884
G1 X110.063 Y105.139 E.02358
G1 X110.51 Y104.809 E.01742
G1 X110.952 Y104.402 E.01883
G1 X111.349 Y103.951 E.01884
G1 X111.749 Y103.345 E.02279
G1 X112.083 Y102.586 E.02598
G1 X112.264 Y101.891 E.02252
G1 X113.502 Y101.891 E.03881
G1 X113.372 Y102.558 E.02129
G1 X113.124 Y103.302 E.02461
G1 X112.782 Y104.009 E.02461
G1 X112.354 Y104.666 E.02461
G1 X111.844 Y105.263 E.02461
G1 X111.262 Y105.79 E.02461
G1 X110.617 Y106.237 E.02461
G1 X109.92 Y106.599 E.02461
G1 X109.183 Y106.868 E.02461
G1 X108.417 Y107.04 E.02461
G1 X107.636 Y107.113 E.02461
G1 X106.852 Y107.085 E.02461
G1 X106.077 Y106.957 E.02461
G1 X105.326 Y106.731 E.02461
G1 X104.61 Y106.41 E.02461
G1 X103.94 Y106 E.02461
G1 X103.329 Y105.508 E.02461
G1 X102.786 Y104.941 E.02461
G1 X102.321 Y104.311 E.02455
G1 X101.864 Y103.476 E.02985
G1 X101.734 Y103.314 E.00649
G1 X101.442 Y103.529 F9000
;TYPE:External perimeter
G1 F1200
G1 X101.332 Y103.494 E.00361
G1 X93.971 Y103.494 E.23082
G1 X93.971 Y101.514 E.06208
G1 X102.992 Y101.514 E.28287
G1 X103.136 Y102.255 E.02366
G1 X103.357 Y102.875 E.02064
G1 X103.705 Y103.493 E.02224
G1 X104.034 Y103.915 E.01679
G1 X104.406 Y104.303 E.01685
G1 X104.814 Y104.653 E.01686
G1 X105.445 Y105.038 E.02316
G1 X105.913 Y105.226 E.01584
G1 X106.428 Y105.379 E.01682
G1 X106.955 Y105.481 E.01685
G1 X107.668 Y105.509 E.02237
G1 X108.194 Y105.442 E.01663
G1 X108.717 Y105.32 E.01682
G1 X109.225 Y105.148 E.01684
G1 X109.839 Y104.836 E.02158
G1 X110.285 Y104.505 E.01742
G1 X110.68 Y104.141 E.01682
G1 X111.036 Y103.74 E.01683
G1 X111.405 Y103.189 E.02079
G1 X111.645 Y102.66 E.01821
G1 X111.779 Y102.257 E.01334
G1 X111.935 Y101.514 E.02379
G1 X113.923 Y101.514 E.06232
G1 X113.897 Y101.834 E.01007
G1 X113.737 Y102.654 E.02618
G1 X113.474 Y103.444 E.02613
G1 X113.112 Y104.195 E.02613
G1 X112.656 Y104.893 E.02613
G1 X112.115 Y105.527 E.02613
G1 X111.497 Y106.086 E.02613
G1 X110.812 Y106.561 E.02613
G1 X110.073 Y106.945 E.02613
G1 X109.29 Y107.23 E.02613
G1 X108.477 Y107.414 E.02613
G1 X107.647 Y107.491 E.02613
G1 X106.814 Y107.461 E.02613
G1 X105.992 Y107.325 E.02613
G1 X105.194 Y107.085 E.02613
G1 X104.433 Y106.744 E.02613
G1 X103.723 Y106.309 E.02613
G1 X103.124 Y105.826 E.02412
G1 X102.854 Y105.557 E.01194
G1 X102.459 Y105.133 E.01818
G1 X101.97 Y104.456 E.02618
G1 X101.472 Y103.581 E.03156
G1 X101.444 Y103.414 F9000
G1 E-3.5 F3600
;WIPE_START
G1 F7200
G1 X101.332 Y103.494 E-.0781
G1 X98.497 Y103.494 E-1.3469
;WIPE_END
G1 E-.075 F3600
G1 X102.019 Y115.98 F9000
G1 E5 F2400
;TYPE:Perimeter
;WIDTH:0.588445
G1 F1200
G1 X101.929 Y115.844 E.00737
G1 X101.73 Y115.801 E.00924
;WIDTH:0.548065
G1 X101.531 Y115.757 E.00856
;WIDTH:0.507684
G1 X101.332 Y115.714 E.00787
;WIDTH:0.467303
G1 X94.749 Y115.714 E.23233
G1 X94.749 Y115.289 E.01498
G1 X101.332 Y115.289 E.23233
;WIDTH:0.507684
G1 X101.651 Y115.309 E.01235
;WIDTH:0.548065
G1 X101.97 Y115.33 E.01342
;WIDTH:0.588445
G1 X102.289 Y115.35 E.01449
G1 X102.345 Y115.532 E.00864
G1 X102.457 Y115.773 E.01206
;WIDTH:0.547337
G1 X102.569 Y116.014 E.01115
;WIDTH:0.506229
G1 X102.681 Y116.255 E.01024
;WIDTH:0.465121
G1 X103.115 Y117.007 E.03049
;WIDTH:0.472919
G1 X103.427 Y117.404 E.01805
;WIDTH:0.473048
G1 X103.89 Y117.887 E.02393
G1 X104.406 Y118.313 E.02394
;WIDTH:0.468367
G1 X105.156 Y118.755 E.03077
;WIDTH:0.472757
G1 X105.622 Y118.948 E.01805
;WIDTH:0.473279
G1 X106.263 Y119.14 E.02393
G1 X106.922 Y119.257 E.02395
;WIDTH:0.469119
G1 X107.767 Y119.276 E.02994
;WIDTH:0.472411
G1 X108.293 Y119.213 E.01894
;WIDTH:0.473451
G1 X108.945 Y119.064 E.02394
G1 X109.576 Y118.841 E.02396
;WIDTH:0.469811
G1 X110.3 Y118.457 E.02909
;WIDTH:0.472008
G1 X110.749 Y118.13 E.01982
;WIDTH:0.473568
G1 X111.243 Y117.679 E.02395
G1 X111.682 Y117.174 E.02396
;WIDTH:0.470448
G1 X112.113 Y116.506 E.02824
;WIDTH:0.464216
G1 X112.415 Y115.838 E.02568
;WIDTH:0.46992
G1 X112.575 Y115.29 E.02027
G1 X113.014 Y115.29 E.01558
G1 X112.942 Y115.571 E.01029
;WIDTH:0.471544
G1 X112.744 Y116.16 E.02215
G1 X112.385 Y116.883 E.02876
;WIDTH:0.465379
G1 X111.958 Y117.512 E.0267
;WIDTH:0.473568
G1 X111.543 Y117.988 E.0226
G1 X110.999 Y118.479 E.02624
;WIDTH:0.472008
G1 X110.354 Y118.92 E.0279
;WIDTH:0.466044
G1 X109.546 Y119.309 E.03156
;WIDTH:0.473451
G1 X109.056 Y119.48 E.01858
G1 X108.34 Y119.64 E.02623
;WIDTH:0.472411
G1 X107.587 Y119.708 E.02703
;WIDTH:0.46677
G1 X106.686 Y119.652 E.0318
;WIDTH:0.473279
G1 X106.156 Y119.556 E.01928
G1 X105.454 Y119.343 E.02622
;WIDTH:0.472757
G1 X104.785 Y119.045 E.02619
;WIDTH:0.467555
G1 X103.984 Y118.521 E.03382
;WIDTH:0.473048
G1 X103.593 Y118.197 E.01815
G1 X103.087 Y117.667 E.02621
;WIDTH:0.472919
G1 X102.653 Y117.079 E.02612
;WIDTH:0.472767
G1 X102.218 Y116.279 E.03255
;WIDTH:0.511327
G1 X102.122 Y116.134 E.00677
;WIDTH:0.549886
G1 X102.052 Y116.03 E.00528
G1 X101.697 Y116.264 F9000
;WIDTH:0.419999
G1 F1200
G1 X101.661 Y116.22 E.00179
G1 X101.332 Y116.114 E.01083
G1 X94.348 Y116.114 E.21899
G1 X94.348 Y114.888 E.03844
G1 X102.672 Y114.888 E.261
G1 X102.78 Y115.378 E.01572
G1 X103.03 Y116.059 E.02273
G1 X103.451 Y116.791 E.02648
G1 X103.901 Y117.348 E.02245
G1 X104.617 Y117.971 E.02977
G1 X105.304 Y118.385 E.02516
G1 X105.984 Y118.659 E.02298
G1 X106.939 Y118.855 E.03057
G1 X107.716 Y118.88 E.02437
G1 X108.242 Y118.813 E.01663
G1 X108.827 Y118.678 E.01882
G1 X109.395 Y118.482 E.01884
G1 X110.063 Y118.136 E.02358
G1 X110.51 Y117.806 E.01742
G1 X110.952 Y117.4 E.01883
G1 X111.349 Y116.949 E.01884
G1 X111.749 Y116.342 E.02279
G1 X112.083 Y115.584 E.02598
G1 X112.264 Y114.888 E.02252
G1 X113.502 Y114.888 E.03881
G1 X113.372 Y115.555 E.02129
G1 X113.124 Y116.3 E.02461
G1 X112.782 Y117.006 E.02461
G1 X112.354 Y117.664 E.02461
G1 X111.844 Y118.26 E.02461
G1 X111.262 Y118.787 E.02461
G1 X110.617 Y119.235 E.02461
G1 X109.92 Y119.596 E.02461
G1 X109.183 Y119.865 E.02461
G1 X108.417 Y120.038 E.02461
G1 X107.636 Y120.11 E.02461
G1 X106.852 Y120.083 E.02461
G1 X106.077 Y119.954 E.02461
G1 X105.326 Y119.728 E.02461
G1 X104.61 Y119.407 E.02461
G1 X103.94 Y118.997 E.02461
G1 X103.329 Y118.505 E.02461
G1 X102.786 Y117.938 E.02461
G1 X102.321 Y117.308 E.02455
G1 X101.864 Y116.473 E.02985
G1 X101.734 Y116.311 E.00649
G1 X101.442 Y116.527 F9000
;TYPE:External perimeter
G1 F1200
G1 X101.332 Y116.491 E.00361
G1 X93.971 Y116.491 E.23082
G1 X93.971 Y114.511 E.06208
G1 X102.992 Y114.511 E.28287
G1 X103.136 Y115.252 E.02366
G1 X103.357 Y115.872 E.02064
G1 X103.705 Y116.49 E.02224
G1 X104.034 Y116.913 E.01679
G1 X104.406 Y117.301 E.01685
G1 X104.814 Y117.65 E.01686
G1 X105.445 Y118.035 E.02316
G1 X105.913 Y118.224 E.01584
G1 X106.428 Y118.377 E.01682
G1 X106.955 Y118.479 E.01685
G1 X107.668 Y118.506 E.02237
G1 X108.194 Y118.439 E.01663
G1 X108.717 Y118.318 E.01682
G1 X109.225 Y118.145 E.01684
G1 X109.839 Y117.833 E.02158
G1 X110.285 Y117.503 E.01742
G1 X110.68 Y117.139 E.01682
G1 X111.036 Y116.738 E.01683
G1 X111.405 Y116.187 E.02079
G1 X111.645 Y115.658 E.01821
G1 X111.779 Y115.254 E.01334
G1 X111.935 Y114.511 E.02379
G1 X113.923 Y114.511 E.06232
G1 X113.897 Y114.832 E.01007
G1 X113.737 Y115.651 E.02618
G1 X113.474 Y116.442 E.02613
G1 X113.112 Y117.192 E.02613
G1 X112.656 Y117.89 E.02613
G1 X112.115 Y118.524 E.02613
G1 X111.497 Y119.083 E.02613
G1 X110.812 Y119.558 E.02613
G1 X110.073 Y119.942 E.02613
G1 X109.29 Y120.228 E.02613
G1 X108.477 Y120.411 E.02613
G1 X107.647 Y120.488 E.02613
G1 X106.814 Y120.459 E.02613
G1 X105.992 Y120.322 E.02613
G1 X105.194 Y120.082 E.02613
G1 X104.433 Y119.741 E.02613
G1 X103.723 Y119.306 E.02613
G1 X103.124 Y118.823 E.02412
G1 X102.854 Y118.554 E.01194
G1 X102.459 Y118.13 E.01818
G1 X101.97 Y117.453 E.02618
G1 X101.472 Y116.579 E.03156
G1 X101.444 Y116.411 F9000
G1 E-3.5 F3600
;WIPE_START
G1 F7200
G1 X101.332 Y116.491 E-.0781
G1 X98.497 Y116.491 E-1.3469
;WIPE_END
G1 E-.075 F3600
G1 X102.019 Y128.977 F9000
G1 E5 F2400
;TYPE:Perimeter
;WIDTH:0.588445
G1 F1200
G1 X101.929 Y128.842 E.00737
G1 X101.73 Y128.798 E.00924
;WIDTH:0.548065
G1 X101.531 Y128.754 E.00856
;WIDTH:0.507684
G1 X101.332 Y128.711 E.00787
;WIDTH:0.467303
G1 X94.749 Y128.711 E.23233
G1 X94.749 Y128.286 E.01498
G1 X101.332 Y128.286 E.23233
;WIDTH:0.507684
G1 X101.651 Y128.307 E.01235
;WIDTH:0.548065
G1 X101.97 Y128.327 E.01342
;WIDTH:0.588445
G1 X102.289 Y128.347 E.01449
G1 X102.345 Y128.529 E.00864
G1 X102.457 Y128.77 E.01206
;WIDTH:0.547337
G1 X102.569 Y129.011 E.01115
;WIDTH:0.506229
G1 X102.681 Y129.252 E.01024
;WIDTH:0.465121
G1 X103.115 Y130.005 E.03049
;WIDTH:0.472919
G1 X103.427 Y130.401 E.01805
;WIDTH:0.473048
G1 X103.89 Y130.884 E.02393
G1 X104.406 Y131.31 E.02394
;WIDTH:0.468367
G1 X105.156 Y131.752 E.03077
;WIDTH:0.472757
G1 X105.622 Y131.945 E.01805
;WIDTH:0.473279
G1 X106.263 Y132.137 E.02393
G1 X106.922 Y132.254 E.02395
;WIDTH:0.469119
G1 X107.767 Y132.273 E.02994
;WIDTH:0.472411
G1 X108.293 Y132.21 E.01894
;WIDTH:0.473451
G1 X108.945 Y132.061 E.02394
G1 X109.576 Y131.838 E.02396
;WIDTH:0.469811
G1 X110.3 Y131.454 E.02909
;WIDTH:0.472008
G1 X110.749 Y131.127 E.01982
;WIDTH:0.473568
G1 X111.243 Y130.676 E.02395
G1 X111.682 Y130.171 E.02396
;WIDTH:0.470448
G1 X112.113 Y129.504 E.02824
;WIDTH:0.464216
G1 X112.415 Y128.836 E.02568
;WIDTH:0.46992
G1 X112.575 Y128.288 E.02027
G1 X113.014 Y128.288 E.01558
G1 X112.942 Y128.569 E.01029
;WIDTH:0.471544
G1 X112.744 Y129.157 E.02215
G1 X112.385 Y129.881 E.02876
;WIDTH:0.465379
G1 X111.958 Y130.509 E.0267
;WIDTH:0.473568
G1 X111.543 Y130.985 E.0226
G1 X110.999 Y131.476 E.02624
;WIDTH:0.472008
G1 X110.354 Y131.918 E.0279
;WIDTH:0.466044
G1 X109.546 Y132.307 E.03156
;WIDTH:0.473451
G1 X109.056 Y132.477 E.01858
G1 X108.34 Y132.637 E.02623
;WIDTH:0.472411
G1 X107.587 Y132.705 E.02703
;WIDTH:0.46677
G1 X106.686 Y132.649 E.0318
;WIDTH:0.473279
G1 X106.156 Y132.554 E.01928
G1 X105.454 Y132.341 E.02622
;WIDTH:0.472757
G1 X104.785 Y132.042 E.02619
;WIDTH:0.467555
G1 X103.984 Y131.518 E.03382
;WIDTH:0.473048
G1 X103.593 Y131.194 E.01815
G1 X103.087 Y130.664 E.02621
;WIDTH:0.472919
G1 X102.653 Y130.076 E.02612
;WIDTH:0.472767
G1 X102.218 Y129.276 E.03255
;WIDTH:0.511327
G1 X102.122 Y129.132 E.00677
;WIDTH:0.549886
G1 X102.052 Y129.027 E.00528
G1 X101.697 Y129.262 F9000
;WIDTH:0.419999
G1 F1200
G1 X101.661 Y129.217 E.00179
G1 X101.332 Y129.112 E.01083
G1 X94.348 Y129.112 E.21899
G1 X94.348 Y127.886 E.03844
G1 X102.672 Y127.886 E.261
G1 X102.78 Y128.375 E.01572
G1 X103.03 Y129.056 E.02273
G1 X103.451 Y129.788 E.02648
G1 X103.901 Y130.345 E.02245
G1 X104.617 Y130.969 E.02977
G1 X105.304 Y131.382 E.02516
G1 X105.984 Y131.656 E.02298
G1 X106.939 Y131.853 E.03057
G1 X107.716 Y131.878 E.02437
G1 X108.242 Y131.81 E.01663
G1 X108.827 Y131.675 E.01882
G1 X109.395 Y131.479 E.01884
G1 X110.063 Y131.133 E.02358
G1 X110.51 Y130.803 E.01742
G1 X110.952 Y130.397 E.01883
G1 X111.349 Y129.946 E.01884
G1 X111.749 Y129.339 E.02279
G1 X112.083 Y128.581 E.02598
G1 X112.264 Y127.886 E.02252
G1 X113.502 Y127.886 E.03881
G1 X113.372 Y128.552 E.02129
G1 X113.124 Y129.297 E.02461
G1 X112.782 Y130.004 E.02461
G1 X112.354 Y130.661 E.02461
G1 X111.844 Y131.258 E.02461
G1 X111.262 Y131.784 E.02461
G1 X110.617 Y132.232 E.02461
G1 X109.92 Y132.593 E.02461
G1 X109.183 Y132.862 E.02461
G1 X108.417 Y133.035 E.02461
G1 X107.636 Y133.108 E.02461
