; generated by PrusaSlicer 2.5.0+win64 on 2022-12-18 at 21:28:43 UTC


;
;

;
;
; 

; external perimeters extrusion width = 0.45mm
; perimeters extrusion width = 0.45mm
; infill extrusion width = 0.45mm
; solid infill extrusion width = 0.45mm
; top infill extrusion width = 0.40mm
; first layer extrusion width = 0.42mm

M107
;TYPE:Custom
G90 ; use absolute coordinates
M83 ; extruder relative mode
M104 S120 ; set temporary nozzle temp to prevent oozing during homing and auto bed leveling
M140 S60 ; set final bed temp
G4 S10 ; allow partial nozzle warmup
G28 ; home all axis
G29 ; run abl mesh
M420 S1 ; load mesh
G1 Z50 F240
G1 X2 Y10 F3000
M104 S210 ; set final nozzle temp
M190 S60 ; wait for bed temp to stabilize
M109 S210 ; wait for nozzle temp to stabilize
G1 Z0.28 F240
G92 E0
G1 Y140 E10 F1500 ; prime the nozzle
G1 X2.3 F5000
G92 E0
G1 Y10 E10 F1200 ; prime the nozzle
G92 E0
G21 ; set units to millimeters
G90 ; use absolute coordinates
M83 ; use relative distances for extrusion
; Filament gcode
M107
;LAYER_CHANGE
;Z:0.2
;HEIGHT:0.2
;BEFORE_LAYER_CHANGE
G92 E0
;0.2


G1 E-5 F3600
G1 Z.2 F9000
;AFTER_LAYER_CHANGE
;0.2
G1 X96.65 Y49.193
G1 E5 F2400
;TYPE:Skirt/Brim
;WIDTH:0.42
G1 F1200
G1 X97.695 Y48.317 E.04278
G1 X98.635 Y48.123 E.03008
G1 X162.935 Y48.123 E2.01608
G1 X164.242 Y48.515 E.04278
G1 X165.118 Y49.56 E.04278
G1 X165.312 Y50.5 E.03008
G1 X165.312 Y184.5 E4.20148
G1 X164.921 Y185.807 E.04278
G1 X163.875 Y186.683 E.04278
G1 X162.935 Y186.877 E.03008
G1 X98.635 Y186.877 E2.01608
G1 X97.328 Y186.485 E.04278
G1 X96.452 Y185.44 E.04278
G1 X96.258 Y184.5 E.03008
G1 X96.258 Y50.5 E4.20148
G1 X96.632 Y49.25 E.0409
G1 E-3.5 F3600
;WIPE_START
G1 F7200
G1 X97.695 Y48.317 E-.67209
G1 X98.635 Y48.123 E-.45576
G1 X99.261 Y48.123 E-.29715
;WIPE_END
G1 E-.075 F3600
G1 X100.099 Y51.764 F9000
G1 E5 F2400
;TYPE:Perimeter
;WIDTH:0.419999
G1 F1200
G1 X161.671 Y51.764 E1.93053
G1 X161.671 Y113.236 E1.9274
G1 X100.099 Y113.236 E1.93053
G1 X100.099 Y51.824 E1.92552
G1 X99.722 Y51.387 F9000
G1 F1200
G1 X162.048 Y51.387 E1.95418
G1 X162.048 Y113.613 E1.95104
G1 X99.722 Y113.613 E1.95418
G1 X99.722 Y51.447 E1.94916
G1 X99.345 Y51.01 F9000
;TYPE:External perimeter
G1 F1200
G1 X162.425 Y51.01 E1.97783
G1 X162.425 Y113.99 E1.97469
G1 X99.345 Y113.99 E1.97783
G1 X99.345 Y51.07 E1.97281
G1 X99.731 Y51.113 F9000
G1 E-3.5 F3600
;WIPE_START
G1 F7200
G1 X102.345 Y51.067 E-1.425
;WIPE_END
G1 E-.075 F3600
G1 X154.083 Y56.173 F9000
G1 E5 F2400
;TYPE:Perimeter
G1 F1200
G1 X154.174 Y56.067 E.00437
G1 X154.661 Y55.734 E.01852
G1 X155.178 Y55.544 E.01728
G1 X155.722 Y55.496 E.01711
G1 X156.387 Y55.601 E.02112
G1 X156.92 Y55.857 E.01853
G1 X157.368 Y56.241 E.01852
G1 X157.702 Y56.728 E.01852
G1 X157.898 Y57.285 E.01852
G1 X157.943 Y57.874 E.01852
G1 X157.834 Y58.455 E.01852
G1 X157.578 Y58.987 E.01852
G1 X157.194 Y59.436 E.01852
G1 X156.731 Y59.759 E.0177
G1 X156.15 Y59.965 E.01935
G1 X155.568 Y60.011 E.01828
G1 X154.98 Y59.901 E.01876
G1 X154.448 Y59.646 E.01852
G1 X154 Y59.262 E.01852
G1 X153.666 Y58.774 E.01852
G1 X153.483 Y58.291 E.01621
G1 X153.425 Y57.628 E.02085
G1 X153.51 Y57.111 E.01642
G1 X153.789 Y56.515 E.02064
G1 X154.044 Y56.218 E.01226
G1 X154.357 Y56.422 F9000
G1 F1200
G1 X154.403 Y56.366 E.00227
G1 X154.805 Y56.082 E.01544
G1 X155.267 Y55.911 E.01544
G1 X155.686 Y55.871 E.01318
G1 X156.243 Y55.949 E.01764
G1 X156.69 Y56.156 E.01545
G1 X157.069 Y56.471 E.01544
G1 X157.353 Y56.873 E.01544
G1 X157.524 Y57.335 E.01544
G1 X157.569 Y57.825 E.01544
G1 X157.485 Y58.31 E.01544
G1 X157.279 Y58.758 E.01544
G1 X156.964 Y59.136 E.01544
G1 X156.532 Y59.433 E.01645
G1 X156.1 Y59.591 E.01441
G1 X155.61 Y59.636 E.01544
G1 X155.125 Y59.553 E.01544
G1 X154.677 Y59.347 E.01544
G1 X154.299 Y59.032 E.01544
G1 X154.014 Y58.63 E.01544
G1 X153.851 Y58.212 E.01406
G1 X153.799 Y57.677 E.01684
G1 X153.882 Y57.192 E.01544
G1 X154.088 Y56.745 E.01544
G1 X154.318 Y56.468 E.01129
G1 X154.653 Y56.651 F9000
;TYPE:External perimeter
G1 F1200
G1 X154.949 Y56.43 E.01159
G1 X155.316 Y56.285 E.01237
G1 X155.649 Y56.246 E.01051
G1 X156.098 Y56.298 E.01417
G1 X156.461 Y56.455 E.01238
G1 X156.77 Y56.7 E.01237
G1 X157.005 Y57.017 E.01237
G1 X157.15 Y57.384 E.01237
G1 X157.195 Y57.776 E.01237
G1 X157.137 Y58.166 E.01237
G1 X156.98 Y58.528 E.01237
G1 X156.735 Y58.837 E.01237
G1 X156.387 Y59.085 E.01338
G1 X156.051 Y59.217 E.01133
G1 X155.659 Y59.262 E.01237
G1 X155.269 Y59.205 E.01237
G1 X154.907 Y59.048 E.01237
G1 X154.598 Y58.802 E.01237
G1 X154.363 Y58.486 E.01237
G1 X154.22 Y58.133 E.01191
G1 X154.173 Y57.727 E.01284
G1 X154.23 Y57.336 E.01237
G1 X154.387 Y56.974 E.01237
G1 X154.611 Y56.693 E.01127
G1 X154.564 Y56.292 F9000
G1 E-3.5 F3600
;WIPE_START
G1 F7200
G1 X154.949 Y56.43 E-.20362
G1 X155.316 Y56.285 E-.18741
G1 X155.649 Y56.246 E-.15924
G1 X156.098 Y56.298 E-.21464
G1 X156.461 Y56.455 E-.18759
G1 X156.77 Y56.7 E-.1874
G1 X157.005 Y57.017 E-.18741
G1 X157.08 Y57.208 E-.09769
;WIPE_END
G1 E-.075 F3600
G1 X104 Y58.264 F9000
G1 E5 F2400
;TYPE:Perimeter
G1 F1200
G1 X103.927 Y57.874 E.01243
G1 X103.973 Y57.285 E.01852
G1 X104.169 Y56.728 E.01852
G1 X104.502 Y56.241 E.01852
G1 X104.95 Y55.857 E.01852
G1 X105.483 Y55.601 E.01852
G1 X106.011 Y55.499 E.01686
G1 X106.619 Y55.534 E.01911
G1 X107.209 Y55.734 E.01953
G1 X107.697 Y56.067 E.01852
G1 X108.081 Y56.515 E.01852
G1 X108.336 Y57.048 E.01852
G1 X108.445 Y57.628 E.01852
G1 X108.4 Y58.217 E.01852
G1 X108.204 Y58.774 E.01852
G1 X107.871 Y59.262 E.01852
G1 X107.422 Y59.646 E.01852
G1 X106.89 Y59.901 E.01852
G1 X106.309 Y60.01 E.01852
G1 X105.721 Y59.965 E.01852
G1 X105.163 Y59.769 E.01852
G1 X104.676 Y59.436 E.01852
G1 X104.292 Y58.987 E.01852
G1 X104.036 Y58.455 E.01852
G1 X104.012 Y58.323 E.0042
G1 X104.365 Y58.184 F9000
G1 F1200
G1 X104.296 Y57.751 E.01373
G1 X104.385 Y57.192 E.01775
G1 X104.591 Y56.745 E.01544
G1 X104.906 Y56.366 E.01544
G1 X105.308 Y56.082 E.01544
G1 X105.77 Y55.911 E.01544
G1 X106.188 Y55.871 E.01318
G1 X106.745 Y55.949 E.01764
G1 X107.193 Y56.156 E.01545
G1 X107.571 Y56.471 E.01544
G1 X107.856 Y56.873 E.01544
G1 X108.026 Y57.335 E.01544
G1 X108.071 Y57.825 E.01544
G1 X107.988 Y58.31 E.01544
G1 X107.782 Y58.758 E.01544
G1 X107.467 Y59.136 E.01544
G1 X107.065 Y59.421 E.01544
G1 X106.745 Y59.553 E.01084
G1 X106.253 Y59.637 E.01565
G1 X105.77 Y59.591 E.01523
G1 X105.298 Y59.417 E.01577
G1 X104.906 Y59.136 E.01512
G1 X104.591 Y58.758 E.01544
G1 X104.385 Y58.31 E.01544
G1 X104.374 Y58.243 E.00214
G1 X104.717 Y58.094 F9000
;TYPE:External perimeter
G1 F1200
G1 X104.675 Y57.727 E.01159
G1 X104.733 Y57.336 E.01237
G1 X104.89 Y56.974 E.01237
G1 X105.135 Y56.665 E.01237
G1 X105.452 Y56.43 E.01237
G1 X105.819 Y56.285 E.01237
G1 X106.152 Y56.246 E.01051
G1 X106.601 Y56.298 E.01417
G1 X106.963 Y56.455 E.01238
G1 X107.272 Y56.7 E.01237
G1 X107.507 Y57.017 E.01237
G1 X107.652 Y57.384 E.01237
G1 X107.697 Y57.776 E.01237
G1 X107.64 Y58.166 E.01237
G1 X107.483 Y58.528 E.01237
G1 X107.186 Y58.877 E.01436
G1 X106.921 Y59.072 E.01033
G1 X106.601 Y59.205 E.01084
G1 X106.162 Y59.262 E.0139
G1 X105.771 Y59.205 E.01237
G1 X105.409 Y59.048 E.01237
G1 X105.1 Y58.802 E.01237
G1 X104.865 Y58.486 E.01237
G1 X104.733 Y58.151 E.01127
G1 X104.362 Y57.991 F9000
G1 E-3.5 F3600
;WIPE_START
G1 F7200
G1 X104.675 Y57.727 E-.20361
G1 X104.733 Y57.336 E-.18741
G1 X104.89 Y56.974 E-.18741
G1 X105.135 Y56.665 E-.18741
G1 X105.452 Y56.43 E-.18741
G1 X105.819 Y56.285 E-.18741
G1 X106.152 Y56.246 E-.15924
G1 X106.414 Y56.276 E-.12512
;WIPE_END
G1 E-.075 F3600
G1 X108.354 Y106.651 F9000
G1 E5 F2400
;TYPE:Perimeter
G1 F1200
G1 X108.4 Y106.783 E.00437
G1 X108.452 Y107.289 E.01594
G1 X108.336 Y107.952 E.02112
G1 X108.081 Y108.485 E.01852
G1 X107.697 Y108.933 E.01852
G1 X107.209 Y109.267 E.01852
G1 X106.692 Y109.456 E.01728
G1 X106.186 Y109.516 E.01596
G1 X105.72 Y109.462 E.0147
G1 X105.163 Y109.267 E.01852
G1 X104.676 Y108.933 E.01852
G1 X104.292 Y108.485 E.01852
G1 X104.036 Y107.952 E.01852
G1 X103.927 Y107.372 E.01852
G1 X103.973 Y106.783 E.01852
G1 X104.169 Y106.226 E.01852
G1 X104.292 Y106.013 E.00772
G1 X104.676 Y105.564 E.01852
G1 X105.131 Y105.245 E.01742
G1 X105.701 Y105.038 E.01904
G1 X106.224 Y104.993 E.01645
G1 X106.889 Y105.099 E.02112
G1 X107.422 Y105.354 E.01853
G1 X107.871 Y105.738 E.01852
G1 X108.204 Y106.226 E.01852
G1 X108.334 Y106.595 E.01227
G1 X108.001 Y106.764 F9000
G1 F1200
G1 X108.026 Y106.832 E.00227
G1 X108.071 Y107.323 E.01544
G1 X107.988 Y107.808 E.01544
G1 X107.782 Y108.255 E.01544
G1 X107.467 Y108.634 E.01544
G1 X107.065 Y108.918 E.01544
G1 X106.603 Y109.089 E.01544
G1 X106.112 Y109.134 E.01544
G1 X105.627 Y109.05 E.01544
G1 X105.18 Y108.844 E.01544
G1 X104.801 Y108.529 E.01544
G1 X104.517 Y108.127 E.01544
G1 X104.346 Y107.665 E.01544
G1 X104.301 Y107.175 E.01544
G1 X104.385 Y106.69 E.01544
G1 X104.591 Y106.242 E.01544
G1 X104.906 Y105.864 E.01544
G1 X105.308 Y105.579 E.01544
G1 X105.77 Y105.409 E.01544
G1 X106.188 Y105.368 E.01318
G1 X106.745 Y105.447 E.01764
G1 X107.193 Y105.653 E.01545
G1 X107.571 Y105.968 E.01544
G1 X107.856 Y106.37 E.01544
G1 X107.98 Y106.708 E.01129
G1 X107.655 Y106.906 F9000
;TYPE:External perimeter
G1 F1200
G1 X107.697 Y107.273 E.01159
G1 X107.64 Y107.664 E.01237
G1 X107.483 Y108.026 E.01237
G1 X107.237 Y108.335 E.01237
G1 X106.921 Y108.57 E.01237
G1 X106.554 Y108.715 E.01237
G1 X106.162 Y108.76 E.01237
G1 X105.771 Y108.702 E.01237
G1 X105.409 Y108.545 E.01237
G1 X105.1 Y108.3 E.01237
G1 X104.865 Y107.983 E.01237
G1 X104.72 Y107.616 E.01237
G1 X104.675 Y107.224 E.01237
G1 X104.733 Y106.834 E.01237
G1 X104.89 Y106.472 E.01237
G1 X105.135 Y106.163 E.01237
G1 X105.452 Y105.928 E.01237
G1 X105.819 Y105.783 E.01237
G1 X106.152 Y105.744 E.01051
G1 X106.601 Y105.795 E.01417
G1 X106.963 Y105.952 E.01238
G1 X107.272 Y106.198 E.01237
G1 X107.507 Y106.514 E.01237
G1 X107.639 Y106.849 E.01127
G1 X108.01 Y107.009 F9000
G1 E-3.5 F3600
;WIPE_START
G1 F7200
G1 X107.697 Y107.273 E-.20362
G1 X107.64 Y107.664 E-.18741
G1 X107.483 Y108.026 E-.18741
G1 X107.237 Y108.335 E-.18741
G1 X106.921 Y108.57 E-.18741
G1 X106.554 Y108.715 E-.18741
G1 X106.162 Y108.76 E-.18741
G1 X105.96 Y108.73 E-.09693
;WIPE_END
G1 E-.075 F3600
G1 X151.562 Y104.3 F9000
G1 E5 F2400
;TYPE:Perimeter
G1 F1200
G1 X149.78 Y105.852 E.0741
G1 X148.291 Y106.982 E.05862
G1 X146.441 Y108.198 E.0694
G1 X144.543 Y109.252 E.06806
G1 X142.514 Y110.19 E.07008
G1 X140.597 Y110.912 E.06424
G1 X138.477 Y111.55 E.0694
G1 X136.291 Y112.032 E.07019
G1 X134.146 Y112.341 E.06795
G1 X132.053 Y112.493 E.06582
G1 X129.885 Y112.495 E.06795
G1 X127.656 Y112.334 E.07008
G1 X125.512 Y112.02 E.06795
G1 X123.396 Y111.551 E.06795
G1 X121.384 Y110.953 E.06582
G1 X119.293 Y110.164 E.07008
G1 X117.327 Y109.252 E.06795
G1 X115.49 Y108.235 E.06582
G1 X113.674 Y107.054 E.06795
G1 X112.038 Y105.813 E.06435
G1 X110.322 Y104.316 E.07142
G1 X108.799 Y102.769 E.06806
G1 X107.394 Y101.119 E.06795
G1 X106.817 Y100.335 E.03053
G1 X106.143 Y99.411 E.03585
G1 X104.961 Y97.539 E.0694
G1 X103.942 Y95.623 E.06806
G1 X103.04 Y93.578 E.07008
G1 X102.334 Y91.601 E.06582
G1 X101.752 Y89.513 E.06795
G1 X101.322 Y87.389 E.06795
G1 X101.04 Y85.172 E.07008
G1 X100.926 Y83.008 E.06795
G1 X100.963 Y80.909 E.06582
G1 X101.165 Y78.683 E.07008
G1 X101.505 Y76.612 E.06582
G1 X102.006 Y74.503 E.06795
G1 X102.659 Y72.437 E.06795
G1 X103.486 Y70.36 E.07008
G1 X104.433 Y68.411 E.06795
G1 X105.483 Y66.593 E.06582
G1 X106.633 Y64.893 E.06435
G1 X108.035 Y63.098 E.07142
G1 X109.499 Y61.492 E.06813
G1 X111.069 Y60.002 E.06788
G1 X112.744 Y58.627 E.06795
G1 X113.327 Y58.213 E.0224
G1 X114.475 Y57.407 E.04397
G1 X116.367 Y56.259 E.0694
G1 X118.302 Y55.275 E.06806
G1 X120.363 Y54.41 E.07008
G1 X122.352 Y53.74 E.06582
G1 X124.45 Y53.195 E.06795
G1 X126.588 Y52.803 E.06815
G1 X128.803 Y52.562 E.06988
G1 X130.851 Y52.49 E.06424
G1 X133.063 Y52.562 E.0694
G1 X135.221 Y52.794 E.06806
G1 X137.42 Y53.195 E.07008
G1 X139.518 Y53.74 E.06795
G1 X141.507 Y54.41 E.06582
G1 X143.568 Y55.275 E.07008
G1 X145.5 Y56.257 E.06795
G1 X147.254 Y57.315 E.06424
G1 X149.069 Y58.584 E.0694
G1 X150.75 Y59.957 E.06806
G1 X152.325 Y61.445 E.06795
G1 X152.983 Y62.162 E.0305
G1 X153.788 Y63.044 E.03745
G1 X155.133 Y64.743 E.06795
G1 X156.387 Y66.593 E.07008
G1 X157.437 Y68.411 E.06582
G1 X158.384 Y70.36 E.06795
G1 X159.189 Y72.373 E.06795
G1 X159.864 Y74.503 E.07008
G1 X160.365 Y76.612 E.06795
G1 X160.705 Y78.683 E.06582
G1 X160.903 Y80.841 E.06795
G1 X160.943 Y83.076 E.07008
G1 X160.823 Y85.24 E.06795
G1 X160.563 Y87.272 E.06424
G1 X160.134 Y89.444 E.0694
G1 X159.556 Y91.536 E.06806
G1 X158.805 Y93.641 E.07008
G1 X157.958 Y95.562 E.06582
G1 X156.945 Y97.477 E.06795
G1 X155.796 Y99.315 E.06795
G1 X154.518 Y101.065 E.06795
G1 X153.818 Y101.893 E.034
G1 X153.117 Y102.719 E.03395
G1 X151.607 Y104.26 E.06766
G1 X151.312 Y104.019 F9000
G1 F1200
G1 X149.552 Y105.552 E.07318
G1 X148.083 Y106.667 E.05781
G1 X146.234 Y107.883 E.0694
G1 X144.36 Y108.922 E.06716
G1 X142.381 Y109.837 E.06838
G1 X140.488 Y110.551 E.06343
G1 X138.369 Y111.189 E.0694
G1 X136.237 Y111.659 E.06844
G1 X134.119 Y111.965 E.0671
G1 X132.025 Y112.117 E.06582
G1 X129.885 Y112.118 E.0671
G1 X127.751 Y111.965 E.0671
G1 X125.593 Y111.652 E.06838
G1 X123.543 Y111.2 E.06582
G1 X121.491 Y110.592 E.0671
G1 X119.451 Y109.822 E.06838
G1 X117.51 Y108.922 E.0671
G1 X115.673 Y107.905 E.06582
G1 X113.88 Y106.738 E.0671
G1 X112.267 Y105.513 E.0635
G1 X110.57 Y104.032 E.07061
G1 X110.214 Y103.671 E.01588
G1 X109.068 Y102.505 E.05128
G1 X107.682 Y100.875 E.0671
G1 X106.462 Y99.209 E.06471
G1 X105.259 Y97.301 E.07075
G1 X104.275 Y95.446 E.06582
G1 X103.411 Y93.489 E.0671
G1 X102.689 Y91.474 E.0671
G1 X102.106 Y89.373 E.06838
G1 X101.692 Y87.315 E.06582
G1 X101.421 Y85.192 E.0671
G1 X101.303 Y83.015 E.06838
G1 X101.343 Y80.875 E.0671
G1 X101.532 Y78.785 E.06582
G1 X101.885 Y76.633 E.06838
G1 X102.373 Y74.591 E.06582
G1 X103.018 Y72.551 E.0671
G1 X103.809 Y70.562 E.0671
G1 X104.741 Y68.636 E.06709
G1 X105.831 Y66.747 E.06838
G1 X106.945 Y65.105 E.06222
G1 X108.332 Y63.331 E.07062
G1 X109.777 Y61.747 E.06721
G1 X111.328 Y60.275 E.06705
G1 X111.791 Y59.895 E.01878
G1 X112.983 Y58.919 E.04832
G1 X114.638 Y57.751 E.0635
G1 X116.563 Y56.581 E.07061
G1 X118.509 Y55.594 E.06844
G1 X120.483 Y54.767 E.0671
G1 X122.512 Y54.085 E.0671
G1 X124.544 Y53.56 E.06582
G1 X126.689 Y53.169 E.06838
G1 X128.776 Y52.942 E.06582
G1 X130.839 Y52.867 E.06471
G1 X133.051 Y52.939 E.0694
G1 X135.221 Y53.175 E.06844
G1 X137.326 Y53.56 E.0671
G1 X139.358 Y54.085 E.06582
G1 X141.425 Y54.782 E.06837
G1 X143.398 Y55.611 E.0671
G1 X145.27 Y56.56 E.06582
G1 X147.038 Y57.624 E.06471
G1 X148.852 Y58.893 E.0694
G1 X150.511 Y60.248 E.06716
G1 X152.066 Y61.719 E.0671
G1 X153.51 Y63.298 E.0671
G1 X154.949 Y65.14 E.07328
G1 X156.06 Y66.782 E.06218
G1 X157.11 Y68.6 E.06582
G1 X158.061 Y70.562 E.06837
G1 X158.852 Y72.551 E.0671
G1 X159.497 Y74.591 E.0671
G1 X159.985 Y76.633 E.06582
G1 X160.338 Y78.785 E.06838
G1 X160.527 Y80.875 E.06582
G1 X160.567 Y83.015 E.0671
G1 X160.449 Y85.192 E.06838
G1 X160.193 Y87.199 E.06343
G1 X159.764 Y89.371 E.0694
G1 X159.193 Y91.435 E.06716
G1 X158.459 Y93.489 E.06838
G1 X157.613 Y95.409 E.06582
G1 X156.612 Y97.301 E.0671
G1 X155.477 Y99.115 E.0671
G1 X154.214 Y100.843 E.0671
G1 X153.53 Y101.649 E.03315
G1 X152.83 Y102.474 E.03395
G1 X151.355 Y103.978 E.06602
G1 X151.067 Y103.733 F9000
;TYPE:External perimeter
G1 F1200
G1 X149.324 Y105.252 E.0725
G1 X147.876 Y106.352 E.057
G1 X146.027 Y107.568 E.0694
G1 X144.178 Y108.592 E.06627
G1 X142.248 Y109.485 E.06667
G1 X140.379 Y110.19 E.06263
G1 X138.26 Y110.828 E.0694
G1 X136.196 Y111.283 E.06627
G1 X134.092 Y111.589 E.06667
G1 X131.998 Y111.741 E.06582
G1 X129.885 Y111.741 E.06624
G1 X127.778 Y111.589 E.06624
G1 X125.674 Y111.283 E.06667
G1 X123.624 Y110.832 E.06582
G1 X121.599 Y110.231 E.06624
G1 X119.609 Y109.479 E.06667
G1 X117.692 Y108.592 E.06624
G1 X115.856 Y107.575 E.06582
G1 X114.086 Y106.422 E.06624
G1 X112.495 Y105.213 E.06265
G1 X110.818 Y103.748 E.06981
G1 X110.286 Y103.206 E.02383
G1 X109.337 Y102.24 E.04244
G1 X107.969 Y100.63 E.06624
