; generated by PrusaSlicer 2.5.0+win64 on 2022-12-16 at 13:37:57 UTC


;
;

;
;
; 

; external perimeters extrusion width = 0.45mm
; perimeters extrusion width = 0.45mm
; infill extrusion width = 0.45mm
; solid infill extrusion width = 0.45mm
; top infill extrusion width = 0.40mm
; first layer extrusion width = 0.42mm

M107
;TYPE:Custom
G90 ; use absolute coordinates
M83 ; extruder relative mode
M104 S120 ; set temporary nozzle temp to prevent oozing during homing and auto bed leveling
M140 S60 ; set final bed temp
G4 S10 ; allow partial nozzle warmup
G28 ; home all axis
G29 ; run abl mesh
M420 S1 ; load mesh
G1 Z50 F240
G1 X2 Y10 F3000
M104 S210 ; set final nozzle temp
M190 S60 ; wait for bed temp to stabilize
M109 S210 ; wait for nozzle temp to stabilize
G1 Z0.28 F240
G92 E0
G1 Y140 E10 F1500 ; prime the nozzle
G1 X2.3 F5000
G92 E0
G1 Y10 E10 F1200 ; prime the nozzle
G92 E0
G21 ; set units to millimeters
G90 ; use absolute coordinates
M83 ; use relative distances for extrusion
; Filament gcode
M107
;LAYER_CHANGE
;Z:0.2
;HEIGHT:0.2
;BEFORE_LAYER_CHANGE
G92 E0
;0.2


G1 E-5 F3600
G1 Z.2 F9000
;AFTER_LAYER_CHANGE
;0.2
G1 X112.729 Y83.943
G1 E5 F2400
;TYPE:Skirt/Brim
;WIDTH:0.42
G1 F1200
G1 X113.775 Y83.067 E.04278
G1 X114.714 Y82.873 E.03008
G1 X140 Y82.873 E.79282
G1 X141.307 Y83.265 E.04278
G1 X142.183 Y84.31 E.04278
G1 X142.377 Y85.25 E.03008
G1 X142.377 Y149.75 E2.02235
G1 X141.985 Y151.057 E.04278
G1 X140.94 Y151.933 E.04278
G1 X140 Y152.127 E.03008
G1 X114.714 Y152.127 E.79282
G1 X113.407 Y151.735 E.04278
G1 X112.531 Y150.69 E.04278
G1 X112.337 Y149.75 E.03008
G1 X112.337 Y85.25 E2.02235
G1 X112.712 Y84 E.0409
G1 E-3.5 F3600
;WIPE_START
G1 F7200
G1 X113.775 Y83.067 E-.67209
G1 X114.714 Y82.873 E-.45576
G1 X115.34 Y82.873 E-.29715
;WIPE_END
G1 E-.075 F3600
G1 X137.153 Y122.025 F9000
G1 E5 F2400
;TYPE:Perimeter
;WIDTH:0.419999
G1 F1200
G1 X137.359 Y122.067 E.0066
G1 X137.751 Y122.371 E.01555
G1 X137.939 Y122.937 E.01869
G1 X137.939 Y127.563 E.14506
G1 X137.925 Y127.726 E.00513
G1 X137.751 Y128.129 E.01376
G1 X137.359 Y128.433 E.01555
G1 X136.997 Y128.506 E.01159
G1 X135.733 Y128.506 E.03962
G1 X135.542 Y128.486 E.00603
G1 X135.203 Y128.343 E.01155
G1 X134.807 Y127.726 E.02298
;WIDTH:0.415537
G1 X134.797 Y127.563 E.00504
;WIDTH:0.407063
G1 X134.797 Y122.937 E.14009
;WIDTH:0.419999
G1 X135.203 Y122.157 E.02755
G1 X135.542 Y122.014 E.01155
G1 X136.138 Y121.994 E.0187
G1 X136.997 Y121.994 E.02692
G1 X137.094 Y122.014 E.00312
G1 X137.075 Y122.387 F9000
G1 F1200
G1 X137.214 Y122.415 E.00446
G1 X137.449 Y122.597 E.00933
G1 X137.562 Y122.937 E.01122
G1 X137.562 Y127.563 E.14506
G1 X137.449 Y127.903 E.01122
G1 X137.214 Y128.085 E.00933
G1 X136.997 Y128.129 E.00696
G1 X135.733 Y128.129 E.03962
G1 X135.415 Y128.031 E.01044
G1 X135.176 Y127.661 E.0138
G1 X135.167 Y122.937 E.14813
G1 X135.415 Y122.469 E.01659
G1 X135.733 Y122.371 E.01044
G1 X137.016 Y122.375 E.04023
G1 X136.997 Y122.748 F9000
;TYPE:External perimeter
G1 F1200
G1 X137.148 Y122.824 E.00529
G1 X137.185 Y122.937 E.00374
G1 X137.185 Y127.563 E.14506
G1 X137.148 Y127.676 E.00374
G1 X137.069 Y127.737 E.00311
G1 X135.695 Y127.748 E.04309
G1 X135.627 Y127.719 E.00231
G1 X135.545 Y127.563 E.00553
G1 X135.545 Y122.937 E.14506
G1 X135.627 Y122.781 E.00553
G1 X135.733 Y122.748 E.00348
G1 X136.937 Y122.748 E.03774
G1 X137.121 Y122.634 F9000
G1 E-3.5 F3600
;WIPE_START
G1 F7200
G1 X137.148 Y122.824 E-.10636
G1 X137.185 Y122.937 E-.05664
G1 X137.185 Y125.594 E-1.262
;WIPE_END
G1 E-.075 F3600
G1 X125.557 Y112.511 F9000
G1 E5 F2400
;TYPE:Perimeter
G1 F1200
G1 X126.106 Y112.323 E.01819
G1 X126.985 Y112.216 E.02776
G1 X127.327 Y112.239 E.01074
G1 X127.466 Y112.286 E.00461
G1 X127.782 Y112.507 E.01209
G1 X128.029 Y113.026 E.01802
G1 X128.064 Y114.459 E.04493
G1 X128.042 Y116.761 E.07218
G1 X127.964 Y117.128 E.01177
G1 X127.711 Y117.47 E.01333
G1 X127.519 Y117.596 E.0072
G1 X127.197 Y117.69 E.01051
G1 X126.62 Y117.647 E.01814
G1 X126.002 Y117.558 E.01957
G1 X125.889 Y117.88 E.0107
G1 X126.005 Y118.335 E.01471
G1 X126.021 Y118.662 E.01026
G1 X125.917 Y119.121 E.01474
G1 X126.051 Y119.531 E.01355
G1 X126.014 Y120.027 E.0156
G1 X125.92 Y120.293 E.00884
G1 X126.009 Y120.498 E.00702
G1 X126.054 Y120.887 E.01226
G1 X126.646 Y120.822 E.01867
G1 X127.61 Y120.816 E.03023
G1 X133.496 Y120.811 E.18454
G1 X133.826 Y120.87 E.01051
G1 X134.069 Y121.004 E.00871
G1 X134.276 Y121.223 E.00944
G1 X134.367 Y121.392 E.00603
G1 X134.439 Y121.754 E.01155
G1 X134.433 Y122.937 E.0371
;WIDTH:0.407063
G1 X134.433 Y127.563 E.14009
;WIDTH:0.419999
G1 X134.439 Y128.746 E.0371
G1 X134.367 Y129.108 E.01155
G1 X134.2 Y129.374 E.00986
G1 X133.882 Y129.607 E.01235
G1 X133.496 Y129.689 E.01236
G1 X119.504 Y129.689 E.43874
G1 X119.238 Y129.651 E.00841
G1 X119.013 Y129.551 E.00772
G1 X118.793 Y129.365 E.00904
G1 X118.625 Y129.087 E.01019
G1 X118.561 Y128.746 E.01088
G1 X118.561 Y121.754 E.21925
G1 X118.622 Y121.422 E.01057
G1 X118.781 Y121.149 E.00993
G1 X118.993 Y120.962 E.00886
G1 X119.383 Y120.819 E.01303
G1 X120.885 Y120.856 E.04709
G1 X120.921 Y120.064 E.02484
G1 X120.99 Y119.777 E.00926
G1 X121.074 Y119.716 E.00324
G1 X120.99 Y119.656 E.00324
G1 X120.833 Y118.87 E.02512
G1 X120.855 Y118.004 E.02716
G1 X120.974 Y117.592 E.01346
G1 X121.19 Y117.331 E.01062
G1 X121.578 Y117.135 E.01361
G1 X121.706 Y117.132 E.00402
G1 X121.675 Y116.672 E.01444
G1 X121.81 Y116.188 E.01574
G1 X121.939 Y115.952 E.00844
G1 X121.741 Y115.468 E.01638
G1 X121.63 Y114.911 E.01783
G1 X121.617 Y114.638 E.00856
G1 X121.641 Y114.586 E.0018
G1 X121.567 Y114.349 E.00778
G1 X121.563 Y113.213 E.03563
G1 X121.619 Y112.891 E.01025
G1 X121.786 Y112.603 E.01042
G1 X122.074 Y112.374 E.01154
G1 X122.551 Y112.141 E.01664
G1 X122.956 Y112.096 E.01277
G1 X123.374 Y112.247 E.01394
G1 X123.921 Y112.638 E.02109
G1 X124.376 Y112.467 E.01523
G1 X125.006 Y112.37 E.01998
G1 X125.301 Y112.411 E.00932
G1 X125.501 Y112.515 E.0071
G1 E-3.5 F3600
;WIPE_START
G1 F7200
G1 X126.106 Y112.323 E-.30131
G1 X126.985 Y112.216 E-.4206
G1 X127.327 Y112.239 E-.16275
G1 X127.466 Y112.286 E-.06988
G1 X127.782 Y112.507 E-.18314
G1 X128.029 Y113.026 E-.273
G1 X128.029 Y113.057 E-.01432
;WIPE_END
G1 E-.075 F3600
G1 X124.705 Y118.012 F9000
G1 E5 F2400
;TYPE:External perimeter
;WIDTH:0.498082
G1 F1200
G1 X124.252 Y118.029 E.01719
G1 X123.728 Y117.902 F9000
;WIDTH:0.717226
G1 F1200
G1 X123.665 Y117.924 E.00376
;WIDTH:0.673112
G1 X123.602 Y117.946 E.00351
;WIDTH:0.628998
G1 X123.539 Y117.968 E.00327
;WIDTH:0.584883
G1 X123.475 Y117.991 E.00302
;WIDTH:0.540769
G1 X123.412 Y118.013 E.00277
G1 X123.488 Y116.968 F9000
;WIDTH:0.44179
G1 F1200
G1 X123.56 Y117.091 E.00471
;WIDTH:0.412355
G1 X123.632 Y117.213 E.00436
G1 E-3.5 F3600
;WIPE_START
G1 F7200
G1 X123.56 Y117.091 E-.06745
G1 X123.488 Y116.968 E-.06745
;WIPE_END
G1 E-1.36509 F3600
G1 X128.666 Y111.93 F9000
G1 E5 F2400
;TYPE:Perimeter
;WIDTH:0.419999
G1 F1200
G1 X128.895 Y111.768 E.0088
G1 X130.156 Y111.04 E.04565
G1 X130.516 Y110.92 E.0119
G1 X130.904 Y110.955 E.01221
G1 X131.378 Y111.286 E.01813
G1 X133.265 Y114.54 E.11793
G1 X133.37 Y114.808 E.00903
G1 X133.384 Y115.127 E.01002
G1 X133.308 Y115.399 E.00883
G1 X133.117 Y115.676 E.01058
G1 X132.92 Y115.827 E.00777
G1 X131.497 Y116.649 E.05151
G1 X131.19 Y116.761 E.01027
G1 X130.817 Y116.752 E.0117
G1 X130.6 Y116.673 E.00724
G1 X130.419 Y116.553 E.00681
G1 X130.153 Y116.206 E.0137
G1 X128.388 Y113.149 E.11069
G1 X128.307 Y112.964 E.00634
G1 X128.307 Y112.389 E.01802
G1 X128.506 Y112.044 E.01248
G1 X128.617 Y111.965 E.00428
G1 E-3.5 F3600
;WIPE_START
G1 F7200
G1 X128.895 Y111.768 E-.16186
G1 X130.156 Y111.04 E-.69163
G1 X130.516 Y110.92 E-.18024
G1 X130.904 Y110.955 E-.18496
G1 X131.26 Y111.203 E-.20631
;WIPE_END
G1 E-.075 F3600
G1 X137.04 Y111.181 F9000
G1 E5 F2400
G1 F1200
G1 X136.999 Y111.294 E.00377
G1 X136.177 Y112.717 E.05151
G1 X135.978 Y112.958 E.00981
G1 X135.749 Y113.105 E.00854
G1 X135.429 Y113.186 E.01034
G1 X135.111 Y113.154 E.01002
G1 X134.797 Y113.008 E.01087
G1 X131.735 Y111.24 E.11086
G1 X131.566 Y111.116 E.00658
G1 X131.282 Y110.612 E.01813
G1 X131.285 Y110.222 E.01221
G1 X131.555 Y109.666 E.0194
G1 X132.211 Y108.53 E.04113
G1 X132.463 Y108.246 E.01188
G1 X132.816 Y108.082 E.01221
G1 X133.393 Y108.132 E.01815
G1 X136.765 Y110.081 E.12213
G1 X137.027 Y110.403 E.01301
G1 X137.125 Y110.823 E.01351
G1 X137.111 Y110.985 E.00513
G1 X137.06 Y111.125 E.00464
G1 E-3.5 F3600
;WIPE_START
G1 F7200
G1 X136.999 Y111.294 E-.0856
G1 X136.177 Y112.717 E-.78039
G1 X135.978 Y112.958 E-.14868
G1 X135.749 Y113.105 E-.1293
G1 X135.429 Y113.186 E-.15657
G1 X135.168 Y113.16 E-.12446
;WIPE_END
G1 E-.075 F3600
G1 X137.5 Y104.43 F9000
G1 E5 F2400
G1 F1200
G1 X137.766 Y104.497 E.0086
G1 X138.109 Y104.81 E.01456
;WIDTH:0.467302
G1 X138.288 Y105.329 E.01936
G1 X138.288 Y106.971 E.05797
;WIDTH:0.476231
G1 X138.278 Y107.139 E.00605
G1 X138.191 Y107.318 E.00716
;WIDTH:0.448115
G1 X138.104 Y107.497 E.00669
;WIDTH:0.419999
G1 X137.754 Y107.809 E.0147
G1 X137.407 Y107.91 E.01135
G1 X133.679 Y107.914 E.1169
G1 X133.47 Y107.891 E.00658
G1 X132.972 Y107.596 E.01815
G1 X132.78 Y107.257 E.01221
G1 X132.736 Y106.741 E.01624
G1 X132.736 Y105.329 E.04428
G1 X132.812 Y104.958 E.01187
G1 X133.036 Y104.639 E.01221
G1 X133.222 Y104.548 E.0065
;WIDTH:0.389282
G1 X133.409 Y104.457 E.00597
;WIDTH:0.396618
G1 X133.786 Y104.398 E.01123
;WIDTH:0.419999
G1 X137.321 Y104.386 E.11086
G1 X137.442 Y104.416 E.00388
G1 X137.411 Y104.785 F9000
G1 F1200
G1 X137.588 Y104.83 E.00573
G1 X137.794 Y105.017 E.00873
G1 X137.887 Y105.329 E.01018
G1 X137.887 Y106.971 E.05151
G1 X137.791 Y107.287 E.01033
G1 X137.581 Y107.474 E.00882
G1 X137.373 Y107.535 E.00681
G1 X133.679 Y107.537 E.11583
G1 X133.553 Y107.523 E.00395
G1 X133.255 Y107.346 E.01089
G1 X133.139 Y107.143 E.00732
G1 X133.113 Y105.329 E.05689
G1 X133.159 Y105.106 E.00712
G1 X133.293 Y104.915 E.00732
G1 X133.607 Y104.767 E.01089
G1 X137.352 Y104.771 E.11742
G1 X137.321 Y105.14 F9000
;TYPE:External perimeter
G1 F1200
G1 X137.479 Y105.225 E.00561
G1 X137.51 Y105.329 E.00339
G1 X137.51 Y106.971 E.05151
G1 X137.478 Y107.076 E.00344
G1 X137.339 Y107.159 E.00508
G1 X133.679 Y107.16 E.11476
G1 X133.537 Y107.096 E.00486
G1 X133.49 Y106.971 E.00418
G1 X133.49 Y105.329 E.05151
G1 X133.55 Y105.191 E.00472
G1 X133.679 Y105.14 E.00433
G1 X137.261 Y105.14 E.11234
G1 X137.456 Y105.022 F9000
G1 E-3.5 F3600
;WIPE_START
G1 F7200
G1 X137.479 Y105.225 E-.11087
G1 X137.51 Y105.329 E-.05143
G1 X137.51 Y106.971 E-.78039
G1 X137.478 Y107.076 E-.05215
G1 X137.339 Y107.159 E-.07702
G1 X136.595 Y107.159 E-.35314
;WIPE_END
G1 E-.075 F3600
G1 X136.693 Y111.049 F9000
G1 E5 F2400
;TYPE:Perimeter
G1 F1200
G1 X135.851 Y112.528 E.05337
G1 X135.731 Y112.673 E.00589
G1 X135.462 Y112.802 E.00936
G1 X135.211 Y112.791 E.00788
G1 X134.985 Y112.682 E.00786
G1 X131.923 Y110.914 E.11086
G1 X131.822 Y110.839 E.00395
G1 X131.652 Y110.537 E.01088
G1 X131.654 Y110.303 E.00733
G1 X131.882 Y109.854 E.01579
G1 X132.538 Y108.718 E.04113
G1 X132.689 Y108.548 E.00713
G1 X132.901 Y108.45 E.00732
G1 X133.31 Y108.511 E.01299
G1 X136.465 Y110.333 E.11422
G1 X136.689 Y110.571 E.01025
G1 X136.748 Y110.841 E.00868
G1 X136.713 Y110.992 E.00486
G1 X136.346 Y110.917 F9000
;TYPE:External perimeter
G1 F1200
G1 X135.524 Y112.34 E.05151
G1 X135.395 Y112.431 E.00497
G1 X135.267 Y112.409 E.00407
G1 X132.112 Y110.587 E.11422
G1 X132.021 Y110.461 E.00486
G1 X132.052 Y110.314 E.00471
G1 X132.864 Y108.907 E.05096
G1 X132.985 Y108.817 E.00472
G1 X133.122 Y108.838 E.00433
G1 X136.277 Y110.659 E.11422
G1 X136.368 Y110.79 E.005
G1 X136.366 Y110.86 E.00221
G1 X136.629 Y111.2 F9000
G1 E-3.5 F3600
;WIPE_START
G1 F7200
G1 X135.524 Y112.34 E-.80847
G1 X135.395 Y112.431 E-.07529
G1 X135.267 Y112.409 E-.06168
G1 X134.392 Y111.904 E-.47956
;WIPE_END
G1 E-.075 F3600
G1 X128.902 Y112.223 F9000
G1 E5 F2400
;TYPE:Perimeter
G1 F1200
G1 X129.256 Y111.995 E.01321
G1 X130.345 Y111.366 E.0394
G1 X130.561 Y111.294 E.00714
G1 X130.793 Y111.315 E.00733
G1 X131.117 Y111.573 E.01298
G1 X132.939 Y114.728 E.11422
G1 X133.014 Y114.999 E.00882
G1 X132.965 Y115.243 E.00782
G1 X132.798 Y115.456 E.00847
G1 X131.309 Y116.322 E.05401
G1 X131.027 Y116.398 E.00917
G1 X130.77 Y116.337 E.00827
G1 X130.536 Y116.115 E.0101
G1 X128.715 Y112.96 E.11422
G1 X128.666 Y112.849 E.0038
G1 X128.666 Y112.505 E.01081
G1 X128.786 Y112.298 E.00749
G1 X128.852 Y112.255 E.00246
G1 X129.11 Y112.514 F9000
;TYPE:External perimeter
G1 F1200
G1 X130.533 Y111.693 E.05151
G1 X130.683 Y111.676 E.00472
G1 X130.791 Y111.762 E.00433
G1 X132.612 Y114.917 E.11422
G1 X132.632 Y115.054 E.00436
G1 X132.543 Y115.174 E.00469
G1 X131.12 Y115.996 E.05151
G1 X130.984 Y116.016 E.00432
G1 X130.863 Y115.927 E.00473
G1 X129.041 Y112.772 E.11422
G1 X129.025 Y112.62 E.00479
G1 X129.073 Y112.561 E.00237
G1 X129.007 Y112.128 F9000
G1 E-3.5 F3600
;WIPE_START
G1 F7200
G1 X130.533 Y111.693 E-.80704
G1 X130.683 Y111.676 E-.07151
G1 X130.791 Y111.762 E-.06556
G1 X131.297 Y112.639 E-.48089
;WIPE_END
G1 E-.075 F3600
G1 X125.468 Y112.964 F9000
G1 E5 F2400
;TYPE:Perimeter
G1 F1200
G1 X126.003 Y112.75 E.01807
G1 X126.229 Y112.684 E.0074
G1 X127.029 Y112.591 E.02523
G1 X127.317 Y112.633 E.00915
G1 X127.507 Y112.766 E.00725
G1 X127.66 Y113.141 E.01271
G1 X127.687 Y114.438 E.04068
G1 X127.665 Y116.757 E.07272
G1 X127.618 Y116.978 E.00706
G1 X127.466 Y117.183 E.008
G1 X127.213 Y117.306 E.00882
G1 X126.662 Y117.273 E.01732
G1 X126.115 Y117.199 E.0173
G1 X125.671 Y117.035 E.01482
G1 X125.648 Y117.43 E.0124
G1 X125.515 Y117.735 E.01042
G1 X125.416 Y117.867 E.00518
G1 X125.54 Y118.024 E.00627
G1 X125.651 Y118.546 E.01674
G1 X125.55 Y119.035 E.01564
G1 X125.506 Y119.124 E.00312
G1 X125.681 Y119.603 E.016
G1 X125.638 Y119.96 E.01126
G1 X125.503 Y120.299 E.01145
G1 X125.663 Y120.649 E.01205
G1 X125.701 Y120.977 E.01036
G1 X125.639 Y121.315 E.01076
G1 X126.621 Y121.204 E.03098
G1 X133.496 Y121.188 E.21557
G1 X133.757 Y121.252 E.00843
G1 X133.964 Y121.435 E.00868
G1 X134.062 Y121.754 E.01044
G1 X134.062 Y128.746 E.21926
G1 X133.964 Y129.065 E.01044
G1 X133.728 Y129.263 E.00966
G1 X133.496 Y129.312 E.00742
G1 X119.504 Y129.312 E.43874
G1 X119.209 Y129.229 E.00959
G1 X119.077 Y129.118 E.00542
G1 X118.946 Y128.844 E.00951
G1 X118.938 Y128.746 E.00308
G1 X118.938 Y121.754 E.21925
G1 X118.974 Y121.555 E.00634
G1 X119.07 Y121.391 E.00596
G1 X119.329 Y121.216 E.0098
G1 X119.815 Y121.198 E.01523
G1 X120.834 Y121.23 E.03199
G1 X121.363 Y121.323 E.01682
G1 X121.26 Y120.819 E.01614
G1 X121.297 Y120.095 E.02274
G1 X121.338 Y119.922 E.00555
G1 X121.622 Y119.714 E.01104
G1 X121.337 Y119.508 E.01104
G1 X121.205 Y118.809 E.02231
G1 X121.232 Y118.023 E.02464
G1 X121.303 Y117.776 E.00807
G1 X121.495 Y117.574 E.00873
G1 X121.666 Y117.502 E.00581
G1 X121.912 Y117.498 E.00774
G1 X122.24 Y117.566 E.01051
G1 X122.116 Y117.279 E.00984
G1 X122.048 Y116.729 E.01737
G1 X122.166 Y116.313 E.01354
G1 X122.366 Y115.947 E.0131
G1 X122.135 Y115.457 E.01698
G1 X122 Y114.838 E.01986
G1 X121.992 Y114.675 E.00514
G1 X122.053 Y114.542 E.00457
G1 X121.953 Y114.376 E.00609
G1 X121.94 Y113.213 E.03648
G1 X122.009 Y112.941 E.00879
G1 X122.162 Y112.763 E.00736
G1 X122.607 Y112.525 E.01583
G1 X122.819 Y112.469 E.00687
G1 X123.082 Y112.516 E.00837
G1 X123.88 Y113.072 E.03051
G1 X124.417 Y112.843 E.01829
G1 X124.932 Y112.755 E.01639
G1 X125.191 Y112.772 E.00814
G1 X125.376 Y112.868 E.00654
G1 X125.426 Y112.921 E.00229
G1 X125.181 Y113.203 F9000
;TYPE:External perimeter
;WIDTH:0.421645
G1 F1200
G1 X125.214 Y113.426 E.00709
;WIDTH:0.418541
G1 X125.209 Y114.056 E.01968
;WIDTH:0.459261
G1 X125.166 Y114.176 E.0044
;WIDTH:0.503511
G1 X125.123 Y114.296 E.00487
;WIDTH:0.521434
G1 X124.973 Y114.491 E.00979
G1 X125.079 Y114.642 E.00737
;WIDTH:0.492272
G1 X125.185 Y114.794 E.00692
;WIDTH:0.46311
G1 X125.21 Y115.65 E.02992
;WIDTH:0.419952
G1 X125.211 Y116.356 E.02215
;WIDTH:0.442405
G1 X125.201 Y116.447 E.00302
G1 X125.147 Y116.504 E.00263
G1 X125.294 Y116.89 E.0137
;WIDTH:0.428428
G1 X125.291 Y117.309 E.01342
;WIDTH:0.419999
G1 X125.213 Y117.509 E.00675
;WIDTH:0.43486
